X: 9908
T: Desperate Dan
R: reel
M: 4/4
K: Gmajor
dggd B3c|dg3 fgaf|dggd B3d|cBAG FGA2|
dggd B3c|dg3 fgag|bgab gedB|cBAG FGAB||
bg3 g2gf|egdg faag|bg3 g2dg|fged g4|
bg3 g2gf|egdg faag|bgab gedB|cBAG FGAB||

